X:1
T:Title
%%score { 1 | 2 }
L:1/8
M:4/4
K:D
V:1 treble nm="Grand Piano"
V:2 bass 
V:1
 z4 z2 z[Q:1/4=100] D | F[FA][FA][GB] [FA] F2 D | [DF][DF][CF][CE] D3 [FA] | BddB [GB] [FA]2 [DF] | %4
 [DF][DF]ED [CE]3 [CA] | AFEF D D2 E | F[FA][FA][DF] [FA]3 [FA] | BddB [GB] [FA]2[K:bass] [F,D] | %8
[M:7/8] [A,DF]2 [G,CE]2 [F,D]3 |[M:1/8][K:treble] [DFA] |[M:4/4] [DFA]2 [A,DF]2 [DFA]3 [Fd] | %11
 d2 B2 d3 B | [FA][FA][FA][GB] [FA] F2 D |[M:7/8] [DF]2 [CE]2 [CE]3 |[M:1/8] [CGA] | %15
[M:4/4] [DFA]2 [A,DF]2 [DFA]3 [Fd] | d2 B2 d3 B | [FA][FA][FA][GB] [FA] F2 D | %18
[M:7/8] F2 [CE]2 D3 |] %19
V:2
 z4 z2 z [D,F,] | [D,A,D][D,D][D,D][D,D] [D,D] [D,A,D]2 [D,F,] | %2
 [A,,A,][A,,A,][A,,A,][A,,G,] [D,F,]3 [D,D] | %3
 [G,DG][G,B,G][G,B,G][G,DG][K:bass] [D,D] [D,D]2 [D,A,] | %4
 [B,,B,][B,,B,][E,^G,D][E,G,] [A,,A,]3 [A,,G,] | %5
 [D,F,D][D,A,D][D,G,A,][D,A,] [D,F,A,] [D,F,A,]2 [D,G,A,] | [D,A,D][D,D][D,D][D,A,] [D,D]3 [D,C] | %7
 [G,DG][G,B,G][G,B,G][G,DG][K:bass] [D,D] [D,D]2 D, |[M:7/8] A,,2 A,,2 D,3 |[M:1/8] D, | %10
[M:4/4] D,2 D,2 D,3 [D,A,] | [G,B,G]2 [G,DG]2 [G,B,G]3 [G,DG] | %12
 [D,D][D,D][D,D][D,D] [D,D] [D,A,D]2 [D,F,] |[M:7/8] [A,,A,]2 [A,,A,]2 [A,,A,]3 |[M:1/8] A,, | %15
[M:4/4] D,2 D,2 D,3 [D,A,] | [G,B,G]2 [G,DG]2 [G,B,G]3 [G,DG] | %17
 [D,D][D,D][D,D][D,D] [D,D] [D,A,D]2 [F,A,] |[M:7/8] [A,D]2 [A,,G,]2 [D,F,]3 |] %19

